src/assets/img/icons/type-cursus.svg

<svg width="24" height="24" viewBox="0 0 24 24" fill="none" xmlns="http://www.w3.org/2000/svg">
<path d="M11.3878 14.4706L4.8571 11.3197M11.3878 14.4706L17.9184 11.3197M11.3878 14.4706V16.5294M4.8571 11.3197L2 9.9412L11.3878 5L20.7755 9.9412M4.8571 11.3197V15.7059L11.3878 19L17.9184 15.7059V11.3197M17.9184 11.3197L20.7755 9.9412M20.7755 9.9412H11.3878M20.7755 9.9412V15.2941M20.7755 15.2941L22 16.9412M20.7755 15.2941L19.551 16.9412" stroke="#FCFDFC" stroke-width="1.2" stroke-linecap="round" stroke-linejoin="round"/>
</svg>

<svg xmlns="http://www.w3.org/2000/svg" width="24" height="24" fill="none" viewBox="0 0 24 24" xmlns:v="https://vecta.io/nano"><path d="M11.388 14.471L4.857 11.32m6.531 3.151l6.531-3.151m-6.531 3.151v2.059m9.388-6.588L11.388 5 2 9.941l2.857 1.379m15.918-1.379l-2.857 1.379m2.857-1.379h-9.388m9.388 0v5.353M4.857 11.32v4.386L11.388 19l6.531-3.294V11.32m2.857 3.974L22 16.941m-1.224-1.647l-1.225 1.647" stroke="#2d3436" stroke-width="1.2" stroke-linecap="round" stroke-linejoin="round"/></svg>
